source/img/logo.svg

<svg fill="none" height="32" viewBox="0 0 154 32" width="154" xmlns="http://www.w3.org/2000/svg"><g fill="#2b2d3a"><path d="m54 9.12646h5.8583c1.5211 0 2.8641.31602 4.0289.94804 1.1648.618 2.0692 1.4888 2.7133 2.6124.6441 1.1095.9661 2.3806.9661 3.8132s-.322 2.7107-.9661 3.8343c-.6441 1.1095-1.5485 1.9803-2.7133 2.6123-1.1648.618-2.5078.927-4.0289.927h-5.8583zm5.7761 13.39894c1.2607 0 2.3639-.2528 3.3094-.7584.9456-.5197 1.6787-1.229 2.1994-2.1279.5208-.9129.7811-1.9592.7811-3.139s-.2603-2.2191-.7811-3.118c-.5207-.9129-1.2538-1.6222-2.1994-2.1278-.9455-.5196-2.0487-.7795-3.3094-.7795h-4.255v12.0506z"/><path d="m72.8395 24.0001c-.8222 0-1.5827-.1826-2.2816-.5478-.6989-.3651-1.2676-.8848-1.7061-1.5589l.9044-1.0534c.7948 1.2079 1.8295 1.8118 3.1039 1.8118 1.7815 0 2.6722-1.0815 2.6722-3.2444v-8.9326h-5.2622v-1.34834h6.7628v10.21774c0 1.5449-.3563 2.7107-1.0689 3.4972-.6989.7725-1.7404 1.1587-3.1245 1.1587z"/><path d="m86.1795 24c-1.0688 0-2.0966-.1756-3.0833-.5267-.9729-.3511-1.7266-.8146-2.2611-1.3904l.5961-1.2009c.5208.5337 1.2128.9691 2.0761 1.3062.8634.323 1.7541.4846 2.6722.4846 1.2882 0 2.2543-.2388 2.8984-.7163.644-.4916.9661-1.1236.9661-1.8961 0-.5899-.1782-1.0604-.5345-1.4115-.3426-.3511-.7674-.618-1.2744-.8006-.507-.1966-1.2128-.4073-2.1172-.632-1.0826-.2809-1.9459-.5478-2.59-.8006-.6441-.2668-1.1991-.6671-1.665-1.2008-.4522-.5337-.6783-1.257-.6783-2.17 0-.7443.1918-1.4185.5755-2.0224.3837-.618.973-1.10958 1.7678-1.47475s1.7815-.54775 2.96-.54775c.8222 0 1.6239.11938 2.405.35815.7948.22472 1.48.54073 2.0555.94805l-.5139 1.243c-.6029-.4073-1.247-.7093-1.9322-.9059-.6852-.2107-1.3566-.3161-2.0144-.3161-1.2608 0-2.2132.2529-2.8572.7585-.6304.4915-.9456 1.1306-.9456 1.9171 0 .5899.1713 1.0674.5139 1.4326.3563.3511.7948.625 1.3156.8216.5344.1826 1.247.3863 2.1377.611 1.0552.2668 1.9048.5337 2.5489.8005.6578.2528 1.2128.6461 1.665 1.1798.4522.5197.6783 1.2289.6783 2.1278 0 .7444-.1987 1.4256-.5961 2.0436-.3837.6039-.9798 1.0884-1.7883 1.4536-.8085.3511-1.802.5267-2.9806.5267z"/><path d="m98.0702 10.4748h-5.0566v-1.34834h11.6344v1.34834h-5.0567v13.3989h-1.5211z"/><path d="m113.784 24c-1.425 0-2.72-.323-3.885-.9691-1.151-.6601-2.056-1.559-2.713-2.6966-.644-1.1377-.967-2.4158-.967-3.8343s.323-2.6966.967-3.8343c.657-1.1376 1.562-2.0295 2.713-2.67553 1.165-.66011 2.46-.99017 3.885-.99017s2.706.32303 3.844.9691c1.151.6461 2.055 1.5449 2.713 2.6966.658 1.1377.987 2.4158.987 3.8343s-.329 2.7037-.987 3.8553c-.658 1.1377-1.562 2.0295-2.713 2.6756-1.138.6461-2.419.9691-3.844.9691zm0-1.3904c1.137 0 2.165-.2599 3.083-.7795.918-.5338 1.638-1.2641 2.159-2.1911.52-.941.781-1.9873.781-3.139s-.261-2.191-.781-3.118c-.521-.941-1.241-1.6713-2.159-2.191-.918-.5337-1.946-.8006-3.083-.8006-1.138 0-2.172.2669-3.104.8006-.918.5197-1.644 1.25-2.179 2.191-.521.927-.781 1.9663-.781 3.118s.26 2.198.781 3.139c.535.927 1.261 1.6573 2.179 2.1911.932.5196 1.966.7795 3.104.7795z"/><path d="m135.179 23.8737-3.288-4.7402c-.37.0422-.754.0632-1.152.0632h-3.864v4.677h-1.521v-14.74724h5.385c1.837 0 3.276.44944 4.317 1.34834 1.042.8989 1.562 2.1349 1.562 3.7079 0 1.1517-.288 2.1278-.863 2.9284-.562.7865-1.37 1.3553-2.426 1.7064l3.515 5.0562zm-4.481-6.0042c1.425 0 2.515-.3231 3.269-.9691.753-.6461 1.13-1.552 1.13-2.7177 0-1.1938-.377-2.1068-1.13-2.7388-.754-.646-1.844-.9691-3.269-.9691h-3.823v7.3947z"/><path d="m151 22.5254v1.3483h-10.175v-14.74724h9.867v1.34834h-8.346v5.2458h7.441v1.3273h-7.441v5.4775z"/></g><path d="m45 6h-40c-1.65685 0-3 1.34315-3 3v14c0 1.6569 1.34315 3 3 3h40c1.6569 0 3-1.3431 3-3v-14c0-1.65685-1.3431-3-3-3z" fill="#397dff"/><path d="m15.5791 12.0559c.9042 0 1.6132.2353 2.127.7059.5138.4631.7706 1.1092.7706 1.9384 0 .8216-.2568 1.4678-.7706 1.9384-.5138.4631-1.2228.6946-2.127.6946h-2.0551v2.5659h-.524v-7.8432zm0 4.7619c.7672 0 1.3529-.183 1.7571-.549.4041-.366.6062-.8889.6062-1.5686 0-.6798-.2021-1.2026-.6062-1.5686-.4042-.3735-.9899-.5603-1.7571-.5603h-2.0551v4.2465z" fill="#fff"/><path d="m25.0332 19.8991-1.716-2.6219c-.2534.0374-.4863.056-.6987.056h-2.0551v2.5659h-.524v-7.8432h2.5791c.9042 0 1.6132.2353 2.127.7059.5138.4631.7706 1.1092.7706 1.9384 0 .62-.1472 1.1428-.4418 1.5686-.2877.4183-.7022.7134-1.2433.8852l1.7982 2.7451zm-2.4147-3.0701c.7672 0 1.3529-.183 1.7571-.549.4041-.3735.6062-.9001.6062-1.5798 0-.6798-.2021-1.2026-.6062-1.5686-.4042-.3735-.9899-.5603-1.7571-.5603h-2.0551v4.2577z" fill="#fff"/><path d="m30.2811 19.9552c-.7056 0-1.3427-.1718-1.9112-.5154-.5686-.3511-1.0173-.8292-1.3461-1.4342-.322-.605-.4829-1.281-.4829-2.028s.1609-1.423.4829-2.028c.3288-.6051.7775-1.0794 1.3461-1.423.5685-.3511 1.2056-.5266 1.9112-.5266.7055 0 1.3426.1718 1.9112.5154.5685.3436 1.0138.8179 1.3358 1.423.3288.605.4932 1.2848.4932 2.0392s-.1644 1.4342-.4932 2.0392c-.322.605-.7673 1.0794-1.3358 1.423-.5686.3436-1.2057.5154-1.9112.5154zm0-.5266c.6028 0 1.1474-.1494 1.6337-.4482.4864-.2988.87-.7096 1.1509-1.2325.2808-.5303.4213-1.1204.4213-1.7703s-.1405-1.2362-.4213-1.7591c-.2809-.5304-.6645-.9449-1.1509-1.2437-.4863-.2988-1.0309-.4482-1.6337-.4482s-1.1509.1494-1.6441.4482c-.4863.2988-.87.7133-1.1508 1.2437-.2809.5229-.4213 1.1092-.4213 1.7591s.1404 1.24.4213 1.7703c.2808.5229.6645.9337 1.1508 1.2325.4932.2988 1.0413.4482 1.6441.4482z" fill="#fff"/><path d="m35.8286 20c-.3288 0-.6062-.1195-.8323-.3585-.226-.2391-.3391-.5416-.3391-.9076 0-.3735.1096-.676.3288-.9076.2261-.2315.507-.3473.8426-.3473.3425 0 .6234.1158.8426.3473.2192.2316.3288.5341.3288.9076 0 .366-.113.6685-.3391.9076-.2192.239-.4966.3585-.8323.3585z" fill="#fff"/></svg>

<svg width="154" height="32" viewBox="0 0 154 32" fill="none" xmlns="http://www.w3.org/2000/svg">
<path d="M54 9.12646H59.8583C61.3794 9.12646 62.7224 9.44248 63.8872 10.0745C65.052 10.6925 65.9564 11.5633 66.6005 12.6869C67.2446 13.7964 67.5666 15.0675 67.5666 16.5001C67.5666 17.9327 67.2446 19.2108 66.6005 20.3344C65.9564 21.4439 65.052 22.3147 63.8872 22.9467C62.7224 23.5647 61.3794 23.8737 59.8583 23.8737H54V9.12646ZM59.7761 22.5254C61.0368 22.5254 62.14 22.2726 63.0855 21.767C64.0311 21.2473 64.7642 20.538 65.2849 19.6391C65.8057 18.7262 66.066 17.6799 66.066 16.5001C66.066 15.3203 65.8057 14.281 65.2849 13.3821C64.7642 12.4692 64.0311 11.7599 63.0855 11.2543C62.14 10.7347 61.0368 10.4748 59.7761 10.4748H55.5211V22.5254H59.7761Z" fill="#2B2D3A"/>
<path d="M72.8395 24.0001C72.0173 24.0001 71.2568 23.8175 70.5579 23.4523C69.859 23.0872 69.2903 22.5675 68.8518 21.8934L69.7562 20.84C70.551 22.0479 71.5857 22.6518 72.8601 22.6518C74.6416 22.6518 75.5323 21.5703 75.5323 19.4074V10.4748H70.2701V9.12646H77.0329V19.3442C77.0329 20.8891 76.6766 22.0549 75.964 22.8414C75.2651 23.6139 74.2236 24.0001 72.8395 24.0001Z" fill="#2B2D3A"/>
<path d="M86.1795 24C85.1107 24 84.0829 23.8244 83.0962 23.4733C82.1233 23.1222 81.3696 22.6587 80.8351 22.0829L81.4312 20.882C81.952 21.4157 82.644 21.8511 83.5073 22.1882C84.3707 22.5112 85.2614 22.6728 86.1795 22.6728C87.4677 22.6728 88.4338 22.434 89.0779 21.9565C89.7219 21.4649 90.044 20.8329 90.044 20.0604C90.044 19.4705 89.8658 19 89.5095 18.6489C89.1669 18.2978 88.7421 18.0309 88.2351 17.8483C87.7281 17.6517 87.0223 17.441 86.1179 17.2163C85.0353 16.9354 84.172 16.6685 83.5279 16.4157C82.8838 16.1489 82.3288 15.7486 81.8629 15.2149C81.4107 14.6812 81.1846 13.9579 81.1846 13.0449C81.1846 12.3006 81.3764 11.6264 81.7601 11.0225C82.1438 10.4045 82.7331 9.91292 83.5279 9.54775C84.3227 9.18258 85.3094 9 86.4879 9C87.3101 9 88.1118 9.11938 88.8929 9.35815C89.6877 9.58287 90.3729 9.89888 90.9484 10.3062L90.4345 11.5492C89.8316 11.1419 89.1875 10.8399 88.5023 10.6433C87.8171 10.4326 87.1457 10.3272 86.4879 10.3272C85.2271 10.3272 84.2747 10.5801 83.6307 11.0857C83.0003 11.5772 82.6851 12.2163 82.6851 13.0028C82.6851 13.5927 82.8564 14.0702 83.199 14.4354C83.5553 14.7865 83.9938 15.0604 84.5146 15.257C85.049 15.4396 85.7616 15.6433 86.6523 15.868C87.7075 16.1348 88.5571 16.4017 89.2012 16.6685C89.859 16.9213 90.414 17.3146 90.8662 17.8483C91.3184 18.368 91.5445 19.0772 91.5445 19.9761C91.5445 20.7205 91.3458 21.4017 90.9484 22.0197C90.5647 22.6236 89.9686 23.1081 89.1601 23.4733C88.3516 23.8244 87.3581 24 86.1795 24Z" fill="#2B2D3A"/>
<path d="M98.0702 10.4748H93.0136V9.12646H104.648V10.4748H99.5913V23.8737H98.0702V10.4748Z" fill="#2B2D3A"/>
<path d="M113.784 24C112.359 24 111.064 23.677 109.899 23.0309C108.748 22.3708 107.843 21.4719 107.186 20.3343C106.542 19.1966 106.219 17.9185 106.219 16.5C106.219 15.0815 106.542 13.8034 107.186 12.6657C107.843 11.5281 108.748 10.6362 109.899 9.99017C111.064 9.33006 112.359 9 113.784 9C115.209 9 116.49 9.32303 117.628 9.9691C118.779 10.6152 119.683 11.514 120.341 12.6657C120.999 13.8034 121.328 15.0815 121.328 16.5C121.328 17.9185 120.999 19.2037 120.341 20.3553C119.683 21.493 118.779 22.3848 117.628 23.0309C116.49 23.677 115.209 24 113.784 24ZM113.784 22.6096C114.921 22.6096 115.949 22.3497 116.867 21.8301C117.785 21.2963 118.505 20.566 119.026 19.639C119.546 18.698 119.807 17.6517 119.807 16.5C119.807 15.3483 119.546 14.309 119.026 13.382C118.505 12.441 117.785 11.7107 116.867 11.191C115.949 10.6573 114.921 10.3904 113.784 10.3904C112.646 10.3904 111.612 10.6573 110.68 11.191C109.762 11.7107 109.036 12.441 108.501 13.382C107.98 14.309 107.72 15.3483 107.72 16.5C107.72 17.6517 107.98 18.698 108.501 19.639C109.036 20.566 109.762 21.2963 110.68 21.8301C111.612 22.3497 112.646 22.6096 113.784 22.6096Z" fill="#2B2D3A"/>
<path d="M135.179 23.8737L131.891 19.1335C131.521 19.1757 131.137 19.1967 130.739 19.1967H126.875V23.8737H125.354V9.12646H130.739C132.576 9.12646 134.015 9.5759 135.056 10.4748C136.098 11.3737 136.618 12.6097 136.618 14.1827C136.618 15.3344 136.33 16.3105 135.755 17.1111C135.193 17.8976 134.385 18.4664 133.329 18.8175L136.844 23.8737H135.179ZM130.698 17.8695C132.123 17.8695 133.213 17.5464 133.967 16.9004C134.72 16.2543 135.097 15.3484 135.097 14.1827C135.097 12.9889 134.72 12.0759 133.967 11.4439C133.213 10.7979 132.123 10.4748 130.698 10.4748H126.875V17.8695H130.698Z" fill="#2B2D3A"/>
<path d="M151 22.5254V23.8737H140.825V9.12646H150.692V10.4748H142.346V15.7206H149.787V17.0479H142.346V22.5254H151Z" fill="#2B2D3A"/>
<path d="M45 6H5C3.34315 6 2 7.34315 2 9V23C2 24.6569 3.34315 26 5 26H45C46.6569 26 48 24.6569 48 23V9C48 7.34315 46.6569 6 45 6Z" fill="#397DFF"/>
<path d="M15.5791 12.0559C16.4833 12.0559 17.1923 12.2912 17.7061 12.7618C18.2199 13.2249 18.4767 13.871 18.4767 14.7002C18.4767 15.5218 18.2199 16.168 17.7061 16.6386C17.1923 17.1017 16.4833 17.3332 15.5791 17.3332H13.524V19.8991H13V12.0559H15.5791ZM15.5791 16.8178C16.3463 16.8178 16.932 16.6348 17.3362 16.2688C17.7403 15.9028 17.9424 15.3799 17.9424 14.7002C17.9424 14.0204 17.7403 13.4976 17.3362 13.1316C16.932 12.7581 16.3463 12.5713 15.5791 12.5713H13.524V16.8178H15.5791Z" fill="white"/>
<path d="M25.0332 19.8991L23.3172 17.2772C23.0638 17.3146 22.8309 17.3332 22.6185 17.3332H20.5634V19.8991H20.0394V12.0559H22.6185C23.5227 12.0559 24.2317 12.2912 24.7455 12.7618C25.2593 13.2249 25.5161 13.871 25.5161 14.7002C25.5161 15.3202 25.3689 15.843 25.0743 16.2688C24.7866 16.6871 24.3721 16.9822 23.831 17.154L25.6292 19.8991H25.0332ZM22.6185 16.829C23.3857 16.829 23.9714 16.646 24.3756 16.28C24.7797 15.9065 24.9818 15.3799 24.9818 14.7002C24.9818 14.0204 24.7797 13.4976 24.3756 13.1316C23.9714 12.7581 23.3857 12.5713 22.6185 12.5713H20.5634V16.829H22.6185Z" fill="white"/>
<path d="M30.2811 19.9552C29.5755 19.9552 28.9384 19.7834 28.3699 19.4398C27.8013 19.0887 27.3526 18.6106 27.0238 18.0056C26.7018 17.4006 26.5409 16.7246 26.5409 15.9776C26.5409 15.2306 26.7018 14.5546 27.0238 13.9496C27.3526 13.3445 27.8013 12.8702 28.3699 12.5266C28.9384 12.1755 29.5755 12 30.2811 12C30.9866 12 31.6237 12.1718 32.1923 12.5154C32.7608 12.859 33.2061 13.3333 33.5281 13.9384C33.8569 14.5434 34.0213 15.2232 34.0213 15.9776C34.0213 16.732 33.8569 17.4118 33.5281 18.0168C33.2061 18.6218 32.7608 19.0962 32.1923 19.4398C31.6237 19.7834 30.9866 19.9552 30.2811 19.9552ZM30.2811 19.4286C30.8839 19.4286 31.4285 19.2792 31.9148 18.9804C32.4012 18.6816 32.7848 18.2708 33.0657 17.7479C33.3465 17.2176 33.487 16.6275 33.487 15.9776C33.487 15.3277 33.3465 14.7414 33.0657 14.2185C32.7848 13.6881 32.4012 13.2736 31.9148 12.9748C31.4285 12.676 30.8839 12.5266 30.2811 12.5266C29.6783 12.5266 29.1302 12.676 28.637 12.9748C28.1507 13.2736 27.767 13.6881 27.4862 14.2185C27.2053 14.7414 27.0649 15.3277 27.0649 15.9776C27.0649 16.6275 27.2053 17.2176 27.4862 17.7479C27.767 18.2708 28.1507 18.6816 28.637 18.9804C29.1302 19.2792 29.6783 19.4286 30.2811 19.4286Z" fill="white"/>
<path d="M35.8286 20C35.4998 20 35.2224 19.8805 34.9963 19.6415C34.7703 19.4024 34.6572 19.0999 34.6572 18.7339C34.6572 18.3604 34.7668 18.0579 34.986 17.8263C35.2121 17.5948 35.493 17.479 35.8286 17.479C36.1711 17.479 36.452 17.5948 36.6712 17.8263C36.8904 18.0579 37 18.3604 37 18.7339C37 19.0999 36.887 19.4024 36.6609 19.6415C36.4417 19.8805 36.1643 20 35.8286 20Z" fill="white"/>
</svg>
